X:51
T: Túlsó soron esik az eső...
K: F
M: 4/4
L: 1/4
gdga | b/a/g/a/ f2 | 
a a g f | d/e/f/e/ d2 | 
ccff | g/f/e/f/ B2 | 
ddcB | G/A/B/A/ G2 | 

